public/img/r.svg

<svg width="198" height="257" viewBox="0 0 198 257" fill="none" xmlns="http://www.w3.org/2000/svg">
<path d="M183.018 81.6844C191.651 72.2039 191.044 57.2323 179.84 50.996C171.824 46.534 163.203 43.1717 154.207 41.0302C137.644 37.0874 120.352 37.4123 103.948 41.9745C87.5451 46.5367 72.568 55.1871 60.4193 67.1155C53.821 73.5942 48.1743 80.9248 43.613 88.8849C37.238 100.01 44.4481 113.146 56.7369 116.807C69.0256 120.468 81.6744 112.915 90.1114 103.259C91.0177 102.222 91.965 101.218 92.9518 100.249C99.4936 93.8256 107.558 89.1677 116.391 86.7111C125.224 84.2544 134.535 84.0795 143.454 86.2026C144.799 86.5229 146.129 86.8939 147.441 87.3142C159.652 91.2273 174.384 91.1648 183.018 81.6844Z" fill="#3ED35F"/>
<path d="M29.2315 236.8C31.0594 249.492 43.0009 258.543 54.938 253.86C60.2916 251.76 65.4684 249.2 70.4086 246.201C81.9881 239.171 92.0289 229.876 99.9287 218.872C107.829 207.867 113.425 195.381 116.382 182.162C119.339 168.942 119.597 155.261 117.138 141.94C114.68 128.619 109.557 115.931 102.077 104.638C94.596 93.3442 84.9118 83.6777 73.6047 76.2178C62.2975 68.7579 49.6004 63.6581 36.2746 61.2244C30.5894 60.186 24.8397 59.6421 19.0893 59.5912C6.26719 59.4776 -1.65756 72.1942 1.16463 84.7024L1.47466 86.0765C4.12562 97.8257 16.0833 104.739 27.9319 106.903C35.1075 108.214 41.9445 110.96 48.0331 114.977C54.1216 118.994 59.3363 124.199 63.3644 130.28C67.3925 136.361 70.1511 143.193 71.4748 150.366C72.7984 157.54 72.6599 164.906 71.0675 172.025C69.4751 179.143 66.4617 185.866 62.2078 191.792C57.954 197.717 52.5473 202.723 46.3121 206.508C36.0162 212.758 27.3136 223.484 29.0307 235.406L29.2315 236.8Z" fill="white"/>
</svg>

<svg width="198" height="257" fill="none" xmlns="http://www.w3.org/2000/svg"><path d="M183.018 81.684c8.633-9.48 8.026-24.452-3.178-30.688a100.604 100.604 0 00-75.892-9.022 100.611 100.611 0 00-60.335 46.91c-6.375 11.126.835 24.262 13.124 27.923 12.289 3.661 24.937-3.892 33.374-13.548a54.172 54.172 0 0157.33-15.945c12.211 3.913 26.943 3.85 35.577-5.63z" fill="#3ED35F"/><path d="M29.232 236.8c1.827 12.692 13.769 21.743 25.706 17.06a100.614 100.614 0 0044.99-34.988A100.61 100.61 0 0019.09 59.592C6.267 59.477-1.658 72.193 1.165 84.701l.31 1.374c2.65 11.75 14.608 18.663 26.457 20.827a54.184 54.184 0 0135.432 23.377 54.175 54.175 0 01-17.052 76.228c-10.296 6.25-18.998 16.976-17.281 28.898l.2 1.394z" fill="#fff"/></svg>
